assets/images/svg/money.svg

<svg width="18" height="14" viewBox="0 0 18 14" fill="none" xmlns="http://www.w3.org/2000/svg">
<path fill-rule="evenodd" clip-rule="evenodd" d="M2.25 0C1.65326 0 1.08097 0.245833 0.65901 0.683417C0.237053 1.121 0 1.71449 0 2.33333V7C0 7.61884 0.237053 8.21233 0.65901 8.64991C1.08097 9.0875 1.65326 9.33333 2.25 9.33333V2.33333H13.5C13.5 1.71449 13.2629 1.121 12.841 0.683417C12.419 0.245833 11.8467 0 11.25 0H2.25ZM4.5 7C4.5 6.38116 4.73705 5.78767 5.15901 5.35008C5.58097 4.9125 6.15326 4.66667 6.75 4.66667H15.75C16.3467 4.66667 16.919 4.9125 17.341 5.35008C17.7629 5.78767 18 6.38116 18 7V11.6667C18 12.2855 17.7629 12.879 17.341 13.3166C16.919 13.7542 16.3467 14 15.75 14H6.75C6.15326 14 5.58097 13.7542 5.15901 13.3166C4.73705 12.879 4.5 12.2855 4.5 11.6667V7ZM11.25 11.6667C11.8467 11.6667 12.419 11.4208 12.841 10.9832C13.2629 10.5457 13.5 9.95217 13.5 9.33333C13.5 8.71449 13.2629 8.121 12.841 7.68342C12.419 7.24583 11.8467 7 11.25 7C10.6533 7 10.081 7.24583 9.65901 7.68342C9.23705 8.121 9 8.71449 9 9.33333C9 9.95217 9.23705 10.5457 9.65901 10.9832C10.081 11.4208 10.6533 11.6667 11.25 11.6667Z" fill="#00162E"/>
</svg>

<svg xmlns="http://www.w3.org/2000/svg" width="18" height="14" fill="none" viewBox="0 0 18 14"><path fill="#00162e" fill-rule="evenodd" d="M2.25 0A2.2 2.2 0 0 0 .659.683 2.38 2.38 0 0 0 0 2.333V7c0 .619.237 1.212.659 1.65a2.2 2.2 0 0 0 1.591.683v-7H13.5c0-.619-.237-1.212-.659-1.65A2.2 2.2 0 0 0 11.25 0zM4.5 7c0-.619.237-1.212.659-1.65a2.2 2.2 0 0 1 1.591-.683h9a2.2 2.2 0 0 1 1.591.683C17.763 5.788 18 6.381 18 7v4.667c0 .619-.237 1.212-.659 1.65A2.2 2.2 0 0 1 15.75 14h-9a2.2 2.2 0 0 1-1.591-.683 2.38 2.38 0 0 1-.659-1.65zm6.75 4.667a2.2 2.2 0 0 0 1.591-.684 2.38 2.38 0 0 0 .659-1.65c0-.619-.237-1.212-.659-1.65A2.2 2.2 0 0 0 11.25 7a2.2 2.2 0 0 0-1.591.683A2.38 2.38 0 0 0 9 9.333c0 .62.237 1.213.659 1.65a2.2 2.2 0 0 0 1.591.684" clip-rule="evenodd"/></svg>
